!!!COM:	Bach, Johann Sebastian
!!!CDT:	1685/02/21/-1750/07/28/
!!!OTL@@DE:	O Gott, du frommer Gott
!!!SCT:	BWV 398
!!!PC#:	312
!!!AGN:	chorale
**kern	**kern	**kern	**kern
*ICvox	*ICvox	*ICvox	*ICvox
*Ibass	*Itenor	*Ialto	*Isoprn
*I"Bass	*I"Tenor	*I"Alto	*I"Soprano
*clefF4	*clefGv2	*clefG2	*clefG2
*k[f#c#]	*k[f#c#]	*k[f#c#]	*k[f#c#]
*D:	*D:	*D:	*D:
*M4/4	*M4/4	*M4/4	*M4/4
*met(c)	*met(c)	*met(c)	*met(c)
*MM100	*MM100	*MM100	*MM100
4D	4F#	4d	4a
=1	=1	=1	=1
8DL	4A	4d	4f#
8EJ	.	.	.
8F#L	4A	8dL	4d
8GJ	.	8eJ	.
8F#L	4d	4f#	4a
8EJ	.	.	.
8F#L	4A	4d	4a
8DJ	.	.	.
=2	=2	=2	=2
2G;	2G;	2d;	2b;
4r	4ry	4ry	4r
4G	4B	4d	4b
=3	=3	=3	=3
8AL	4A	4c#	4e
8GJ	.	.	.
8F#L	4A	4c#	4e
8EJ	.	.	.
8F#L	4A	4d	4a
8EJ	.	.	.
8DL	4A	4e	4g
8C#J	.	.	.
=4	=4	=4	=4
4D	4.A	4d	4f#
4AA	.	4c#	4e
.	8G	.	.
4D;	4F#;	4A;	4d;
4D	4d	4f#	4a
=5	=5	=5	=5
8GL	4d	4g	4b
8F#J	.	.	.
8EL	4G	8gL	4b
8DJ	.	8f#J	.
8C#L	4A	8eL	4a
8BBJ	.	8dJ	.
8C#L	4A	4e	4g
8AAJ	.	.	.
=6	=6	=6	=6
2D;	2A;	2d;	2f#;
4r	4ry	4ry	4r
4AA	4A	4c#	4e
=7	=7	=7	=7
8DL	4A	4d	4f#
8C#J	.	.	.
8DL	4B	4e	4g#
8BBJ	.	.	.
4C#	4A	4e	4a
4D	4A	4f#	8bL
.	.	.	16cc#L
.	.	.	16ddJJ
=8	=8	=8	=8
8EL	4A	4.e	4cc#
8DJ	.	.	.
8EL	4G#	.	4b
8EEJ	.	8d	.
4AA;	4E;	4c#;	4a;
4AA	4E	4c#	4a
=9	=9	=9	=9
8DL	8F#L	4d	4a
8C#	8E	.	.
8D	8F#	4d	4a
8EJ	8GJ	.	.
8F#L	8AL	4d	4dd
8E	8G	.	.
8F#	8A	4d	8ccL
8DJ	8F#J	.	8bJ
=10	=10	=10	=10
2G;	2G;	2d;	2b;
4r	4ry	4ry	4r
8GL	4d	4g	4b
8F#J	.	.	.
=11	=11	=11	=11
8EL	4e	8gL	4b
8D#	.	8f#J	.
8E	4e	8gL	4b
8F#J	.	8aJ	.
8G#L	4B	8bL	4ee
8F#	.	8aJ	.
8G#	4e	8bL	8ddnXL
8EJ	.	8g#J	8cc#J
=12	=12	=12	=12
2A;	2e;	2a;	2cc#;
4r	4ry	4ry	4r
4FF#	4d	4d	4a
=13	=13	=13	=13
8GGL	4d	4g	4b
8BBJ	.	.	.
8DL	4d	4f#	4a
8EJ	.	.	.
8DL	4d	4f#	4b
8C#J	.	.	.
8BBL	4c#	4f#	4cc#
8AA#J	.	.	.
=14	=14	=14	=14
2BB;	2B;	2f#;	2dd;
4r	4ry	4ry	4r
4F#	8dL	8f#L	4a
.	8c#J	8eJ	.
=15	=15	=15	=15
8GL	4B	4d	8bL
8AJ	.	.	8aJ
8BL	8BL	4d	8gL
8GJ	8dJ	.	8f#J
4A	4A	4d	4.e
4AA	4G	4c#	.
.	.	.	8d
=16	=16	=16	=16
2.D;	2.F#;	2.A;	2.d;
==	==	==	==
*-	*-	*-	*-
!!!hum2abc: -Q ''
!!!title: @{PC#}. @{OTL@@DE}
!!!YOR1: 371 vierstimmige Choralges&auml;nge von Johann Sebastian Bach, 
!!!YOR2: 4th ed. by Alfred D&ouml;rffel (Leipzig: Breitkopf und H&auml;rtel, 
!!!YOR2: c.1875). 178 pp. Plate "V.A.10".  reprint: J.S. Bach, 371 Four-Part 
!!!YOR4: Chorales (New York: Associated Music Publishers, Inc., c.1940).
!!!SMS: B&H, 4th ed, Alfred D&ouml;rffel, c.1875, plate V.A.10
!!!EED:  Craig Stuart Sapp
!!!EEV:  2009/05/22
